X: 161
T:Sydney Bar
R:Reel
C:Emile Benoit
M:C|
L:1/8
Z:Gerry Strong
K:C
|:GcBc GFEF|GcBc FD ~D2|GcBc GcEc|FAGF EC ~C2:|
|:g2 ge gcce|g2 ge dcde|gage gdcA|GAcd ec ~c2:|

